dist/assets/img/arrow.svg

<svg width="11" height="8" viewBox="0 0 11 8" fill="none" xmlns="http://www.w3.org/2000/svg">
<path d="M10.4821 4.52501C10.6975 4.33357 10.6975 4.0232 10.4821 3.83177L6.97096 0.712179C6.75546 0.520745 6.40611 0.520745 6.19072 0.712179C5.97521 0.903612 5.97521 1.21399 6.19072 1.40542L9.31171 4.17839L6.19072 6.95136C5.97521 7.14279 5.97521 7.45316 6.19072 7.64459C6.40611 7.83604 6.75546 7.83604 6.97096 7.64459L10.4821 4.52501ZM0 4.66858H10.092V3.68819H0V4.66858Z" fill="#201311"/>
</svg>

<svg width="11" height="8" fill="none" xmlns="http://www.w3.org/2000/svg"><path d="M10.482 4.525a.453.453 0 000-.693L6.971.712a.602.602 0 00-.78 0 .452.452 0 000 .693l3.12 2.773-3.12 2.773a.452.452 0 000 .694.602.602 0 00.78 0l3.511-3.12zM0 4.669h10.092v-.98H0v.98z" fill="#201311"/></svg>
